X: 20452
M: 2/4
L: 1/16
K: D
[|\
d4 {e}fede | f2d2d2c2 | B2e2 efed | c2A2A2c2 |\
d4 {e}fede | f2d2d2c2 | B2e2 dcBA | d4 d4 |]


